X: 11
T:The Market Town
M:6/8
L:1/8
R:Jig
D:Session tape - Bangor, Down 1098? (Nigel and Dianna Boullier)
Z:Bernie Stocks
K:A
EFE ECE | FAA A2f | edc Bcd | cBA F3 | EFE ECE | FAA A2f | edc BAB | cAA A3 ::\
efe ece | f2g agf | edc Bcd | cBA F3 | efe ece | f2g agf | edc BAB | cAG A3 :|
<end>
<start>
